X: 1
T: Rolls Jig
M: 6/8
L: 1/8
R: jig
K: Gmaj
BAB GBd|cBc E2G|FEF AGF|GBG D2c|
BAB GBd|cBc E2G|FEF AGF|GAG G3:|
ded def|gfg b2g|fed A2B|c3 B2c|
ded def|gfg b2g|fed cAF|GAG G3:|
